packages/web/src/assets/Spain-chart.svg

<svg height="164" viewBox="0 0 291 164" width="291" xmlns="http://www.w3.org/2000/svg" xmlns:xlink="http://www.w3.org/1999/xlink"><linearGradient id="a" x1="50%" x2="50%" y1="65.92254%" y2="0%"><stop offset="0" stop-color="#00d1f2" stop-opacity="0"/><stop offset="1" stop-color="#00a4e1"/></linearGradient><linearGradient id="b" x1="50%" x2="50%" y1="0%" y2="57.148332%"><stop offset="0" stop-color="#00d0f2"/><stop offset="1" stop-color="#00a3e1" stop-opacity="0"/></linearGradient><path d="m314 269h-289v-161.5c4.4277898 3.71908 6.8528553 5.839456 7.2751964 6.361126.6335117.782506 5.1797597 7.718071 5.8313296 8.497467.4343799.519597 1.5436703 2.310197 3.3278712 5.371798l4.6980844 4.362563 2.0857316 2.08869h4.2562367l2.8183779-.773002h1.3462615l3.9914063 2.224688 3.5164124 2.095718 7.6305155-1.382382c4.380634 4.408779 6.570951 6.613169 6.570951 6.613169s.2610239.325945.7830718.977837l2.1553302.780384 5.6267945-.369278 2.2938195-.979273 3.7411538-3.451035 5.5852477-4.28514 5.373383-3.88367 5.264536-2.240272 1.215304-.449654 6.985447-.272703 1.605018.272703 5.342527 5.12191 2.52585 2.51072 1.913095 3.550275 2.212913 4.475417 2.467538 4.898211.892163 1.568559h7.900205l2.905602 3.585132 2.699568 2.4123 1.747638 1.828551 1.709978-.514242 5.33378-4.333734 3.845142-4.546566 3.145407-3.758391 3.306492-4.229779 3.492845-3.499015 2.892482-2.822586 3.589059-1.897854 2.128604-1.315688 2.126417-.886241 1.329011-2.146979 1.207287-2.25893 2.677702-3.210933 1.675598-2.486783 11.197252 4.352574 3.681898.681936 3.599296-1.310227 5.459639-2.069753 7.757055 4.043186 3.835251-2.585964 3.543989-1.856247 4.777274-2.606649 3.374115-1.893965 5.911437 2.812004h2.263656l2.007231-2.812004 1.603199-3.359067 1.793184-2.761086 2.060742-3.458782h4.025236 4.089881l7.176326 7.509182 15.905212.539791 7.645362 6.429601 11.389391-.399025 7.403662-1.68861 5.455329-1.329322z" fill="url(#a)" fill-opacity=".2" fill-rule="evenodd" stroke="url(#b)" transform="translate(-24 -106)"/></svg>

<?xml version="1.0" encoding="UTF-8"?>
<svg width="291px" height="164px" viewBox="0 0 291 164" version="1.1" xmlns="http://www.w3.org/2000/svg" xmlns:xlink="http://www.w3.org/1999/xlink">
    <title>路径 24</title>
    <defs>
        <linearGradient x1="50%" y1="65.9225395%" x2="50%" y2="3.061617e-15%" id="linearGradient-1">
            <stop stop-color="#00D1F2" stop-opacity="0" offset="0%"></stop>
            <stop stop-color="#00A4E1" offset="100%"></stop>
        </linearGradient>
        <linearGradient x1="50%" y1="0%" x2="50%" y2="57.1483324%" id="linearGradient-2">
            <stop stop-color="#00D0F2" offset="0%"></stop>
            <stop stop-color="#00A3E1" stop-opacity="0" offset="100%"></stop>
        </linearGradient>
    </defs>
    <g id="新官网" stroke="none" stroke-width="1" fill="none" fill-rule="evenodd" fill-opacity="0.2">
        <g id="鼠标触碰" transform="translate(-213.000000, -3497.000000)" fill="url(#linearGradient-1)" stroke="url(#linearGradient-2)">
            <g id="编组-15备份" transform="translate(189.000000, 3351.000000)">
                <g id="编组-11" transform="translate(0.000000, 40.000000)">
                    <path d="M314,269 L25,269 L25,107.5 C29.4277898,111.21908 31.8528553,113.339456 32.2751964,113.861126 C32.9087081,114.643632 37.4549561,121.579197 38.106526,122.358593 C38.5409059,122.87819 39.6501963,124.66879 41.4343972,127.730391 L46.1324816,132.092954 L48.2182132,134.181644 L52.4744499,134.181644 L55.2928278,133.408642 L56.6390893,133.408642 L60.6304956,135.63333 L64.146908,137.729048 L71.7774235,136.346666 C76.1580575,140.755445 78.3483745,142.959835 78.3483745,142.959835 C78.3483745,142.959835 78.6093984,143.28578 79.1314463,143.937672 L81.2867765,144.718056 L86.913571,144.348778 L89.2073905,143.369505 L92.9485443,139.91847 L98.533792,135.63333 L103.907175,131.74966 L109.171711,129.509388 L110.387015,129.059734 L117.372462,128.787031 L118.97748,129.059734 L124.320007,134.181644 L126.845857,136.692364 L128.758952,140.242639 L130.971865,144.718056 L133.439403,149.616267 L134.331566,151.184826 L142.231771,151.184826 L145.137373,154.769958 L147.836941,157.182258 L149.584579,159.010809 L151.294557,158.496567 L156.628337,154.162833 L160.473479,149.616267 L163.618886,145.857876 L166.925378,141.628097 L170.418223,138.129082 L173.310705,135.306496 L176.899764,133.408642 L179.028368,132.092954 L181.154785,131.206713 L182.483796,129.059734 L183.691083,126.800804 L186.368785,123.589871 L188.044383,121.103088 L199.241635,125.455662 L202.923533,126.137598 L206.522829,124.827371 L211.982468,122.757618 L219.739523,126.800804 L223.574774,124.21484 L227.118763,122.358593 L231.896037,119.751944 L235.270152,117.857979 L241.181589,120.669983 L243.445245,120.669983 L245.452476,117.857979 L247.055675,114.498912 L248.848859,111.737826 L250.909601,108.279044 L254.934837,108.279044 L259.024718,108.279044 L266.201044,115.788226 L282.106256,116.328017 L289.751618,122.757618 L301.141009,122.358593 L308.544671,120.669983 L314,119.340661 L314,269 Z" id="路径-24"></path>
                </g>
            </g>
        </g>
    </g>
</svg>
